X:40
T:Steinbrytervise
T:Nisser og dverge
O:norway
C:anon.
R:March, Nursery song
Z:Transcribed by Frank Nordberg - http://www.musicaviva.com
M:2/4
L:1/8
K:C
"C"c2BA|"C"G2G2|"C"A2GF|"C"E2E2|"G7"G2FE|"G7"D2DE|"G7"F2ED|"C"C2 z2|
"G7"D2DE|"G7"F2D2|"C"E2EF|"C"G2E2|"F"A2AB|"C"c2GE|"G7"G2FD|"C"C2 z2|]
